MODULE Module1
    CONST jointtarget snapshot:=[[0.00129003,63.6129,-13.7103,-3.43354E-05,40.092,0.0007853],[9E+09,9E+09,9E+09,9E+09,9E+09,9E+09]];
    CONST robtarget Key_Pickup:=[[28.99,58.79,38.27],[0.000369229,-0.70705,0.707163,-0.000503347],[0,0,-2,0],[9E+09,9E+09,9E+09,9E+09,9E+09,9E+09]];
    CONST robtarget Key_drop:=[[-35.71,58.51,52.46],[0.000816818,0.000207946,-1,-7.88557E-05],[0,-1,-1,0],[9E+09,9E+09,9E+09,9E+09,9E+09,9E+09]];
    CONST robtarget LAN_10:=[[-20.546,13.275,11.5],[0,0,1,0],[0,0,0,0],[9E+09,9E+09,9E+09,9E+09,9E+09,9E+09]];
    CONST robtarget LAN_20:=[[-20.557,-26.846,11.5],[0,0,1,0],[0,0,0,0],[9E+09,9E+09,9E+09,9E+09,9E+09,9E+09]];
    CONST robtarget Battery_10:=[[29.14,-85.00,86.66],[0.702581,0.00875078,0.711401,-0.0145696],[-1,1,-3,0],[9E+09,9E+09,9E+09,9E+09,9E+09,9E+09]];
    CONST robtarget Waiting:=[[0,0,240],[0,0,1,0],[0,0,0,0],[9E+09,9E+09,9E+09,9E+09,9E+09,9E+09]];
    CONST robtarget Button_pickup:=[[-48.597,-95.435,7],[0,0,1,0],[0,0,0,0],[9E+09,9E+09,9E+09,9E+09,9E+09,9E+09]];
    CONST robtarget LAN_Key:=[[-20.546,13.275,11.5],[0,-0.707106781,0.707106781,0],[0,0,0,0],[9E+09,9E+09,9E+09,9E+09,9E+09,9E+09]];
    CONST robtarget LAN_Button:=[[-20.557,-26.846,11.5],[0,-0.707106781,0.707106781,0],[0,0,0,0],[9E+09,9E+09,9E+09,9E+09,9E+09,9E+09]];
    CONST jointtarget Home_Pos:=[[0,0,0,0,30,0],[9E+09,9E+09,9E+09,9E+09,9E+09,9E+09]];
    CONST robtarget CR2032_Pickup:=[[-48.597,-95.435,7],[0,0,1,0],[0,0,0,0],[9E+09,9E+09,9E+09,9E+09,9E+09,9E+09]];
    CONST robtarget CR2032_Unlock:=[[-48.597,-87.435,7],[0,0,1,0],[-1,0,-1,0],[9E+09,9E+09,9E+09,9E+09,9E+09,9E+09]];
    CONST robtarget Batt_aussen_rausheben:=[[29.37,-0.68,29.19],[0.000487132,0.0213677,-0.999772,0.000217531],[-1,-1,-1,0],[9E+09,9E+09,9E+09,9E+09,9E+09,9E+09]];
    CONST robtarget Batt_LAN_rausheben:=[[22.78,8.15,28.14],[0.000696714,0.0213792,-0.999771,0.000141835],[-1,-1,-1,0],[9E+09,9E+09,9E+09,9E+09,9E+09,9E+09]];
    CONST robtarget Drop_batt_blue:=[[21.124,-88.177,93],[0.5,-0.5,0.5,0.5],[-1,0,-1,0],[9E+09,9E+09,9E+09,9E+09,9E+09,9E+09]];
    CONST robtarget Drop_batt_red:=[[21.124,-72.177,93],[0.5,-0.5,0.5,0.5],[-1,0,-1,0],[9E+09,9E+09,9E+09,9E+09,9E+09,9E+09]];
    CONST robtarget Button_Blue:=[[48.52,-83.22,23.27],[0.000192742,0.00339336,0.999994,-6.92997E-05],[-1,0,-1,0],[9E+09,9E+09,9E+09,9E+09,9E+09,9E+09]];
    CONST robtarget Button_red:=[[49.38,-68.36,23.46],[0.000201932,0.00347082,0.999994,-6.96633E-05],[-1,0,-1,0],[9E+09,9E+09,9E+09,9E+09,9E+09,9E+09]];
    CONST robtarget Batt_aussen_aufnehmen:=[[30.80,25.02,36.81],[0.000528625,0.717167,-0.696901,-0.000153236],[-1,-1,-2,0],[9E+09,9E+09,9E+09,9E+09,9E+09,9E+09]];
    CONST robtarget Batt_LAN_aufnehmen:=[[15.76,-13.61,34.99],[0.000437337,0.717148,-0.69692,-8.92521E-05],[-1,-1,-2,0],[9E+09,9E+09,9E+09,9E+09,9E+09,9E+09]];
    CONST robtarget Batt_Placement:=[[24.83,-58.19,83.65],[0.650182,-0.286105,0.66108,0.24162],[-1,1,-3,0],[9E+09,9E+09,9E+09,9E+09,9E+09,9E+09]];
    CONST robtarget Batt_Positioning_drop:=[[523.67,-248.54,-237.64],[1.20953E-05,-9.90312E-06,-1,-3.50501E-05],[-1,0,-1,0],[9E+09,9E+09,9E+09,9E+09,9E+09,9E+09]];
    CONST robtarget Batt_positioning_pickup:=[[534.17,-247.39,-268.18],[4.61844E-05,-7.49293E-06,1,1.01151E-05],[-1,0,-1,0],[9E+09,9E+09,9E+09,9E+09,9E+09,9E+09]];
    CONST robtarget Drop_batt_blue_2:=[[21.124,-88.177,43],[0.5,-0.5,0.5,0.5],[-1,0,-2,0],[9E+09,9E+09,9E+09,9E+09,9E+09,9E+09]];
    CONST robtarget Drop_batt_red_2:=[[21.124,-72.177,43],[0.5,-0.5,0.5,0.5],[-1,0,-2,0],[9E+09,9E+09,9E+09,9E+09,9E+09,9E+09]];
ENDMODULE